X: 228
T: Liusanr tuiche
%%abc-version 2.0
%%abcx-abcm2ps-target-version 5.9.1 (29 Sep 2008)
%%abc-creator hum2abc beta
%%abcx-conversion-date 2013/10/02 07:52:29
%%abc-edited-by Helmut Schaffrath
%%humdrum-veritas 2859668136
%%humdrum-veritas-data 4154012306
%%continueall 1
%%barnumbers 0
L: 1/8
M: 2/4
K: G
d2d2 [I:setbarnb 1]| 
g ed2 | 
dA2c | 
B dA2 | 
d> d G A | 
d2g e | 
d2G A | 
dG2B | 
A GD2 | 
G> GD2 | 
zd2e | 
d2A B | 
A GD2 | 
d> d G A | 
d2g e | 
d2G A | 
c> c B A | 
GD3 | 
G> G G B | 
A GD2 | 
d> d G A | 
d2g e | 
d2G A | 
c> c B A | 
GD3 |]  



